X:1
T:Thine Eye Can See
T:Thine Eye Can See
T:Theodore Edson Perkins
T:Mary Ann Pepper Kidder, 1879
T:Public Domain Courtesy of the Cyber Hymnal™
T:Public Domain Courtesy of the Cyber Hymnal™
C:Theodore Edson Perkins
Z:Public Domain
Z:Courtesy of the Cyber Hymnal™
%%score 1 ( 2 3 )
L:1/8
Q:1/4=110
M:6/8
K:Bb
V:1 treble 
V:2 bass 
V:3 bass 
V:1
 [DF] | [DF]2 [DF] [EG]2 [DF] | [B,D]2 [DF] [EG]3 | [EF]3 [EG]2 [EF] | [B,D]3- [B,D]2 [DF] | %5
w: 1.~Dear|Sav- ior, all I|think or do|Thine eye can|see; * My|
w: 2.~Do|clouds ob- scure my|morn- ing sun?|Thine eye can|see; * Do|
w: 3.~When|ev- ening sha- dows|o’er me creep,|Thine eye can|see; * When|
w: 4.~If|I will serve Thee|day by day,|Thine eye can|see; * If|
 [DF]2 [DF] [EG]2 [DF] | [B,D]2 [DF] [EG]3 | [EF]3 [EG]2 [EF] | [DB]3- [DB]2 [DB] | %9
w: ma- ny wants, my|tri- als, too,|Thine eye can|see; * Wher-|
w: friends for- sake me,|one by one?|Thine eye can|see; * Have|
w: on my pil- low|calm I sleep,|Thine eye can|see; * I|
w: from Thy plea- sant|paths I stray,|Thine eye can|see; * Oh,|
 [CA]2 [DB] [Ec]2 [Ge] | [Fd]2 [Ec] [DB]2 [FA] | [EG]2 [EA] [FB]2 [Fd] | [Fc]2 [GB] [FA]2 [EG] | %13
w: e’er I dwell it|mat- ters not, My|home a pal- ace|or a cot; Thank|
w: I no home, no|rest- ing place? Still|o- pened are Thine|arms of grace, The|
w: thank Thee for Thy|watch- ful care, How|sweet Thy ten- der|love to share, And|
w: take my heart, my|will sub- due, And|may I ev- er|keep in view, That|
 [DF]2 [DF] [EG]2 [DF] | [B,D]2 [DF] [EG]3 | [EF]3 [EG]2 [EF] | [DB]3- [DB]2 z || %17
w: God! what- ev- er|be my lot,|Thine eye can|see. *|
w: tear of sor- row|on my face|Thine eye can|see. *|
w: know that ev- ery|grief I bear|Thine eye can|see. *|
w: all I think and|all I do|Thine eye can|see. *|
"^Refrain" ([Fd]2 [Ec]) [DB]2 [Ec] | [DB]3- [DB] z2 | ([Ec]2 [DB]) [EA]2 [DB] | %20
w: |||
w: |||
w: |||
w: |||
 [Ec]3- [Ec] z2 [DF] | [DF]2 [DF] [EG]2 [DF] | [B,D]2 [DF] [EG]3 | [EF]3 [EG]2 [EF] | %24
w: ||||
w: ||||
w: ||||
w: ||||
 [DB]3- [DB]2 |] %25
w: |
w: |
w: |
w: |
V:2
 [B,,B,] | [B,,B,]2 [B,,B,] [B,,B,]2 [B,,B,] | [B,,F,]2 [B,,B,] [E,B,]3 | [F,A,]3 [F,B,]2 [F,A,] | %4
w: ~|~ ~ ~ ~|~ ~ ~|~ ~ ~|
 [B,,B,]3- [B,,B,]2 [B,,B,] | [B,,B,]2 [B,,B,] [B,,B,]2 [B,,B,] | [B,,F,]2 [B,,B,] [E,B,]3 | %7
w: ~ * ~|~ ~ ~ ~|~ ~ ~|
 [F,A,]3 [F,B,]2 [F,A,] | [B,,B,]3- [B,,B,]2 [B,,F,] | F,2 F, F,2 [F,A,] | %10
w: ~ ~ ~|~ * ~|~ ~ ~ ~|
 [F,B,]2 [F,A,] [B,,B,]2 [B,,B,] | [E,B,]2 [E,C] [D,B,]2 [B,,B,] | [C,A,]2 [C,C] [F,C]2 [F,A,] | %13
w: ~ ~ ~ ~|~ ~ ~ ~|~ ~ ~ ~|
 [B,,B,]2 [B,,B,] [B,,B,]2 [B,,B,] | [B,,F,]2 [B,,B,] [E,B,]3 | [F,A,]3 [F,B,]2 [F,A,] | %16
w: ~ ~ ~ ~|~ ~ ~|~ ~ ~|
 [B,,B,]3- [B,,B,]2 z || [B,,B,]3 [B,,F,]2 [B,,F,] | [B,,F,]3- [B,,F,] z2 | %19
w: ~ *|Thine eye can|see, *|
 (A,2 B,) [F,C]2 [F,B,] | [F,A,]3- [F,A,] z2 [B,,B,] | [B,,B,]2 [B,,B,] [B,,B,]2 [B,,B,] | %22
w: Thine * eye can|see; * Thank|God! what- ev- er|
 [B,,F,]2 [B,,B,] [E,B,]3 | [F,A,]3 [F,B,]2 [F,A,] | [B,,B,]3- [B,,B,]2 |] %25
w: be my lot,|Thine eye can|see. *|
V:3
 x | x6 | x6 | x6 | x6 | x6 | x6 | x6 | x6 | F,2 F, F,2 x | x6 | x6 | x6 | x6 | x6 | x6 | x6 || %17
 x6 | x6 | F,3 x3 | x7 | x6 | x6 | x6 | x5 |] %25

